X: 2539
T: Ballygow, The
R: reel
M: 4/4
K: Amajor
EFAB c2Ac|c2Ac BAFA|EFAB c2cd|1 ecAc BAFA:|2 ecAc B2A2||
afef ~c3c|cBAc BAFA|afef ~c3c|cBAc B4|
ae~e2 dA~A2|ecAc BAFA|EFAB c2cd|ecAc B2A2||

